X: 1
T: LAND LEAGUE -- JIG
C: Tom Doyle
R: jig
B: Ryan's Mammoth Collection of Fiddle Tunes
M: 6/8
L: 1/8
Z: Contributed 20000831194345 by John Chambers John.Chambers:weema.com
K: D
   vdBB dBB | dBB fed | cAA cAA | cAA "4"edc \
|   dBB dBB | dBB fed | cde fge | dBB B2z :|
|: vafd afd | afd Adf | gec gec | gAc efg \
|   afd afd | afd Adf | eba gfe | fdd d2z :|
